assets/fonts/icons.svg

<?xml version="1.0" standalone="no"?>
<!DOCTYPE svg PUBLIC "-//W3C//DTD SVG 1.1//EN" "http://www.w3.org/Graphics/SVG/1.1/DTD/svg11.dtd" >
<svg xmlns="http://www.w3.org/2000/svg">
<metadata>Generated by IcoMoon</metadata>
<defs>
<font id="icomoon" horiz-adv-x="512">
<font-face units-per-em="512" ascent="480" descent="-32" />
<missing-glyph horiz-adv-x="512" />
<glyph unicode="&#x20;" d="" horiz-adv-x="256" />
<glyph unicode="&#x2f;" d="M185.042 75.52l-6.327 6.455 144.96 142.016-144.96 142.034 6.327 6.455 151.534-148.489z" />
<glyph unicode="&#x3c;" d="M311.378 45.897l-120.237 177.564 120.53 178.633 7.488-5.056-117.111-173.577 116.8-172.508z" />
<glyph unicode="&#x3e;" d="M200.329 45.915l-7.488 5.038 117.111 173.586-116.8 172.499 7.47 5.056 120.237-177.545z" />
<glyph unicode="&#x4d;" d="M454.656 35.584h-66.568v108.879l-161.583 97.72 30.007 60.665 131.576-78.848v79.531l-131.576-79.531-131.261 79.531v-79.531l131.261 78.848 50.304-48.86-181.565-109.519v-108.885h-66.883v387.072l198.144-119.808 198.144 119.808zM230.679 145.494c0-14.267 11.566-25.833 25.833-25.833s25.833 11.566 25.833 25.833c0 0 0 0 0 0 0 14.267-11.566 25.833-25.833 25.833s-25.833-11.566-25.833-25.833c0 0 0 0 0 0z" />
<glyph unicode="&#x5c;" d="M404.48 296.603l-6.455 6.336-142.016-144.969-142.034 144.969-6.455-6.336 148.489-151.533z" />
<glyph unicode="&#x63;" d="M479.274 294.752c-0.042 0.283-0.12 0.554-0.151 0.837-0.102 0.542-0.193 1.084-0.343 1.614-0.090 0.319-0.193 0.626-0.301 0.928-0.145 0.47-0.313 0.94-0.494 1.397-0.126 0.319-0.283 0.632-0.428 0.94-0.193 0.434-0.404 0.861-0.645 1.271-0.169 0.307-0.373 0.602-0.548 0.891-0.259 0.398-0.524 0.789-0.819 1.163-0.205 0.283-0.428 0.566-0.651 0.837-0.307 0.355-0.626 0.705-0.952 1.036-0.253 0.259-0.5 0.518-0.771 0.753-0.355 0.319-0.711 0.626-1.090 0.916-0.295 0.223-0.578 0.446-0.879 0.657-0.12 0.072-0.211 0.163-0.325 0.235l-204.318 135.957c-6.445 4.307-14.86 4.307-21.311 0l-204.33-135.957c-0.114-0.072-0.199-0.163-0.319-0.235-0.307-0.211-0.59-0.434-0.873-0.602-0.373-0.295-0.741-0.602-1.096-0.916-0.271-0.235-0.518-0.494-0.771-0.753-0.343-0.331-0.645-0.681-0.952-1.205-0.223-0.271-0.446-0.554-0.657-0.837-0.283-0.373-0.554-0.765-0.807-1.163-0.193-0.295-0.373-0.59-0.56-0.602-0.235-0.41-0.44-0.837-0.645-1.271-0.139-0.307-0.301-0.626-0.422-0.94-0.187-0.458-0.349-0.928-0.494-1.205-0.108-0.307-0.211-0.614-0.307-0.928-0.133-0.53-0.229-1.072-0.337-1.614-0.054-0.283-0.126-0.554-0.145-0.602-0.12-0.825-0.175-1.656-0.175-2.506v-136.824c0-0.602 0-1.807 0-2.518 0.036 0 0-0.602 0-0.602 0.108-0.602 0-1.205 0.608-1.614 0.096-0.602 0-0.602 0.608-0.928 0.145-0.602 0.608-1.205 0.608-1.205 0.126-0.602 0-0.602 0.602-0.928 0.205-0.602 0.608-0.602 0.608-1.283 0.175 0 0.608-0.602 0.608-0.602 0.253-0.602 0.608-0.602 0.608-1.163 0.205 0 0.608-0.602 0.608-0.837 0.301-0.602 0.602-0.602 1.199-1.205 0.253 0 0.608-0.602 0.608-0.753 0.355-0.602 0.608-0.602 1.205-0.916 0.283 0 0.602-0.602 0.602-0.602 0.12 0 0 0 0.608-0.235l203.824-136.818c3.229-2.409 7.222-3.012 10.842-3.235 3.704 0 7.415 1.084 10.662 3.235l204.33 136.216c0.114 0.072 0.199 0.163 0.319 0.235 0.307 0.211 0.59 0.434 0.879 0.657 0.373 0.295 0.735 0.602 1.096 0.916 0.265 0.235 0.512 0.494 0.765 0.753 0.343 0.331 0.645 0.681 0.958 1.036 0.217 0.271 0.44 0.542 0.651 0.837 0.289 0.373 0.554 0.765 0.813 1.163 0.181 0.295 0.373 0.59 0.554 0.879 0.241 0.422 0.446 0.849 0.645 1.283 0.139 0.307 0.301 0.614 0.422 0.928 0.187 0.47 0.349 0.94 0.494 1.41 0.108 0.307 0.217 0.614 0.307 0.928 0.133 0.53 0.241 1.072 0.337 1.614 0.054 0.271 0.126 0.554 0.157 0.825 0.108 0.837 0.163 1.669 0.163 2.518l0.004 136.24c-0.187 0.813-0.042 1.416-0.638 2.506l0.252-0.007zM275.119 392.568l150.522-100.34-67.235-44.978-83.287 55.718v89.6zM236.695 392.406v-89.606l-83.288-55.555-67.241 44.978 150.522 100.34 0.007-0.157zM70.782 256.286l48.062-32.148-48.062-32.148v64.296zM236.695 55.715l-150.528 100.075 67.24 44.971 83.281-55.706 0.007-89.34zM255.904 178.691l-67.945 45.448 67.945 45.448 67.945-45.448-67.945-45.448zM275.119 55.715v89.6l83.287 55.706 67.235-44.966-150.522-100.34zM441.019 191.991l-48.050 32.148 48.050 32.148v-64.296z" />
<glyph unicode="&#x65;" d="M467.075 447.674l-277.454-317.937-154.775 86.729zM380.13 21.614l-176.449 99.765 273.473 327.148zM152.164-0.522v137.256l76.856-45.347z" />
<glyph unicode="&#x66;" d="M287.935-32h-95.935v256h-64v88.225l64 0.029-0.104 51.976c0 71.976 19.517 115.77 104.299 115.77h70.588v-88.242h-44.115c-33.016 0-34.603-12.328-34.603-35.342l-0.131-44.162h79.345l-9.352-88.225-69.927-0.029-0.065-256z" />
<glyph unicode="&#x67;" d="M0 201.795c0-23.199 2.17-44.19 6.511-62.967 4.339-18.777 10.348-35.092 18.026-48.946s17.442-26.039 29.293-36.554c11.85-10.516 24.703-19.112 38.556-25.788s29.668-12.099 47.444-16.273c17.776-4.173 35.928-7.094 54.455-8.764 18.527-1.669 38.89-2.503 61.089-2.503 22.366 0 42.814 0.834 61.34 2.503 18.527 1.67 36.721 4.592 54.58 8.764s33.756 9.596 47.694 16.273c13.938 6.677 26.873 15.272 38.808 25.788 11.935 10.515 21.783 22.702 29.543 36.554s13.811 30.168 18.151 48.946c4.34 18.778 6.51 39.768 6.51 62.967 0 41.394-13.854 77.197-41.559 107.408 1.502 4.006 2.879 8.554 4.131 13.645s2.42 12.351 3.505 21.782c1.085 9.431 0.668 20.321-1.252 32.673-1.919 12.352-5.466 24.953-10.642 37.806l-3.755 0.751c-2.671 0.5-7.053 0.375-13.145-0.376s-13.186-2.253-21.281-4.507c-8.095-2.253-18.527-6.593-31.296-13.019s-26.247-14.479-40.435-24.16c-24.368 6.676-57.834 10.015-100.396 10.015-42.396 0-75.778-3.339-100.147-10.015-14.188 9.681-27.75 17.734-40.685 24.16s-23.242 10.766-30.92 13.019c-7.677 2.254-14.855 3.714-21.531 4.382-6.677 0.668-10.892 0.876-12.644 0.626s-3.13-0.543-4.131-0.876c-5.174-12.853-8.721-25.453-10.64-37.806-1.919-12.352-2.337-23.243-1.252-32.673s2.254-16.691 3.505-21.782c1.252-5.091 2.629-9.639 4.131-13.645-27.707-30.211-41.561-66.013-41.561-107.408zM62.842 138.953c0 24.035 10.933 46.068 32.798 66.097 6.509 6.010 14.104 10.557 22.783 13.646s18.485 4.84 29.418 5.258c10.933 0.417 21.406 0.334 31.421-0.251s22.366-1.377 37.054-2.378c14.688-1.002 27.374-1.502 38.056-1.502s23.368 0.5 38.056 1.502c14.689 1.001 27.039 1.794 37.055 2.378 10.015 0.585 20.487 0.668 31.421 0.251s20.738-2.17 29.419-5.258c8.678-3.088 16.272-7.635 22.782-13.646 21.865-19.697 32.799-41.728 32.799-66.097 0-14.356-1.795-27.081-5.384-38.182s-8.179-20.405-13.771-27.915c-5.592-7.51-13.352-13.895-23.284-19.153-9.931-5.258-19.611-9.305-29.042-12.144-9.431-2.837-21.533-5.049-36.304-6.635-14.773-1.586-27.958-2.546-39.559-2.879s-26.33-0.501-44.189-0.501c-17.859 0-32.589 0.167-44.189 0.501s-24.787 1.293-39.558 2.879c-14.771 1.586-26.872 3.798-36.303 6.635-9.43 2.839-19.111 6.887-29.042 12.144s-17.693 11.641-23.284 19.153c-5.591 7.511-10.182 16.815-13.77 27.915-3.589 11.101-5.383 23.828-5.383 38.182zM320 144c0 26.51 14.327 48 32 48s32-21.49 32-48c0-26.51-14.327-48-32-48s-32 21.49-32 48zM128 144c0 26.51 14.327 48 32 48s32-21.49 32-48c0-26.51-14.327-48-32-48s-32 21.49-32 48z" />
<glyph unicode="&#x69;" d="M73.361 287.285h78.347v-251.686l-78.347-0.004v251.69zM112.556 412.401c25.048 0 45.376-20.324 45.376-45.339 0-25.041-20.327-45.368-45.376-45.368-25.142 0-45.408 20.327-45.408 45.368-0.003 25.016 20.266 45.339 45.408 45.339zM200.827 287.285h75.035v-34.388h1.071c10.443 19.794 35.996 40.655 74.073 40.655 79.207 0 93.849-52.115 93.849-119.902v-138.055h-78.209v122.382c0 29.191-0.559 66.745-40.684 66.745-40.735 0-46.951-31.791-46.951-64.621v-124.507l-78.184 0.001v251.69z" />
<glyph unicode="&#x6d;" d="M481.779 3.473h-65.533v124.064l-194.439 111.35 34.193 51.063 160.246-89.846v119.006l-160.246-98.363-159.889 98.363v-119.006l159.889 89.846 57.321-37.612-217.21-124.793v-124.072h-65.887v441.054l225.776-154.577 225.779 154.577zM226.563 128.714c-0.001-0.089-0.001-0.192-0.001-0.297 0-16.26 13.18-29.44 29.44-29.44s29.44 13.18 29.44 29.44c0 0.104-0 0.209-0.002 0.313 0.001 0.072 0.002 0.177 0.002 0.281 0 16.26-13.18 29.44-29.44 29.44s-29.44-13.18-29.44-29.44c0-0.104 0-0.209 0.001-0.313z" />
<glyph unicode="&#x70;" d="M220.57 147.763c-13.44-70.477-29.85-138.061-78.49-173.363-15.001 106.547 22.041 186.547 39.245 271.488-29.338 49.408 3.533 148.787 65.433 124.288 76.16-30.131-65.945-183.629 29.44-202.803 99.61-20.019 140.262 172.8 78.515 235.495-89.241 90.573-259.789 2.099-238.797-127.513 5.094-31.693 37.837-41.319 13.082-85.043-57.114 12.647-74.163 57.703-71.962 117.76 3.533 98.278 88.32 167.091 173.363 176.614 107.571 12.058 208.512-39.475 222.413-140.647 15.693-114.176-48.512-237.85-163.558-228.941-31.155 2.381-44.237 17.817-68.685 32.666z" />
<glyph unicode="&#x74;" d="M512 382.791c-18.838-8.354-39.082-14.001-60.33-16.54 21.686 13 38.343 33.585 46.186 58.115-20.298-12.039-42.778-20.78-66.705-25.49-19.16 20.415-46.461 33.17-76.673 33.17-58.011 0-105.044-47.029-105.044-105.039 0-8.233 0.929-16.25 2.72-23.939-87.3 4.382-164.701 46.2-216.509 109.753-9.042-15.514-14.223-33.558-14.223-52.809 0-36.444 18.544-68.596 46.73-87.433-17.219 0.546-33.416 5.271-47.577 13.139-0.010-0.438-0.010-0.878-0.010-1.321 0-50.894 36.209-93.348 84.261-103-8.813-2.4-18.094-3.686-27.674-3.686-6.769 0-13.349 0.66-19.764 1.886 13.368-41.73 52.16-72.103 98.126-72.948-35.95-28.175-81.243-44.967-130.458-44.967-8.479 0-16.84 0.497-25.058 1.47 46.486-29.805 101.701-47.197 161.021-47.197 193.211 0 298.868 160.062 298.868 298.872 0 4.554-0.103 9.084-0.305 13.59 20.528 14.81 38.336 33.31 52.418 54.374z" />
<glyph unicode="&#x76;" d="M256 384c-141.392 0-256-160-256-160s114.608-160 256-160 256 160 256 160-114.608 160-256 160zM256 128c-53.008 0-96 42.992-96 96s42.992 96 96 96 96-42.992 96-96-42.992-96-96-96zM256 288c-35.344 0-64-28.656-64-64s28.656-64 64-64 64 28.656 64 64-28.656 64-64 64z" />
<glyph unicode="&#x78;" d="M77.605 427.922l382.317-382.281-25.563-25.563-382.281 382.317zM434.395 427.922l25.527-25.527-382.281-382.317-25.563 25.563z" />
</font></defs></svg>

<?xml version="1.0" standalone="no"?>
<!DOCTYPE svg PUBLIC "-//W3C//DTD SVG 1.1//EN" "http://www.w3.org/Graphics/SVG/1.1/DTD/svg11.dtd" >
<svg xmlns="http://www.w3.org/2000/svg">
<metadata>
This is a custom SVG font generated by IcoMoon.
<iconset grid="16"></iconset>
</metadata>
<defs>
<font id="MM" horiz-adv-x="512" >
<font-face units-per-em="512" ascent="480" descent="-32" />
<missing-glyph horiz-adv-x="512" />
<glyph class="hidden" unicode="&#xf000;" d="M0,480L 512 -32L0 -32 z" horiz-adv-x="0" />
<glyph unicode="&#x76;" d="M 256,384C 114.608,384,0,224,0,224s 114.608-160, 256-160s 256,160, 256,160S 397.392,384, 256,384z M 256,128
			c-53.008,0-96,42.992-96,96s 42.992,96, 96,96s 96-42.992, 96-96S 309.008,128, 256,128z M 256,288c-35.344,0-64-28.656-64-64s 28.656-64, 64-64s 64,28.656, 64,64
			S 291.344,288, 256,288z"  />
<glyph unicode="&#x74;" d="M 512,382.791c-18.838-8.354-39.082-14.001-60.33-16.54c 21.686,13, 38.343,33.585, 46.186,58.115
	c-20.298-12.039-42.778-20.78-66.705-25.49c-19.16,20.415-46.461,33.17-76.673,33.17c-58.011,0-105.044-47.029-105.044-105.039
	c0-8.233, 0.929-16.25, 2.72-23.939c-87.3,4.382-164.701,46.2-216.509,109.753c-9.042-15.514-14.223-33.558-14.223-52.809
	c0-36.444, 18.544-68.596, 46.73-87.433c-17.219,0.546-33.416,5.271-47.577,13.139c-0.010-0.438-0.010-0.878-0.010-1.321
	c0-50.894, 36.209-93.348, 84.261-103c-8.813-2.4-18.094-3.686-27.674-3.686c-6.769,0-13.349,0.66-19.764,1.886
	c 13.368-41.73, 52.16-72.103, 98.126-72.948c-35.95-28.175-81.243-44.967-130.458-44.967c-8.479,0-16.84,0.497-25.058,1.47
	c 46.486-29.805, 101.701-47.197, 161.021-47.197c 193.211,0, 298.868,160.062, 298.868,298.872c0,4.554-0.103,9.084-0.305,13.59
	C 480.11,343.227, 497.918,361.727, 512,382.791z"  />
<glyph unicode="&#x6c;" d="M 96,224c0,6.090, 0.352,12.098, 1.015,18.011l-92.49,30.052C 1.567,256.493,0,240.431,0,224
			c0-73.615, 31.083-139.961, 80.827-186.662l 57.142,78.648C 111.907,144.449, 96,182.365, 96,224zM 416,224c0-41.634-15.906-79.551-41.969-108.014l 57.142-78.648C 480.917,84.039, 512,150.385, 512,224
			c0,16.431-1.566,32.493-4.524,48.063l-92.49-30.052C 415.648,236.097, 416,230.090, 416,224zM 288,380.796c 45.967-9.331, 84.772-38.371, 107.225-77.913l 92.489,30.051C 451.116,410.644, 376.594,466.964, 288,478.012L 288,380.796 zM 116.775,302.884c 22.453,39.542, 61.258,68.582, 107.225,77.913L 224,478.012 C 135.406,466.964, 60.885,410.644, 24.287,332.935
			L 116.775,302.884zM 322.278,78.336C 302.083,69.132, 279.642,64, 256,64s-46.083,5.132-66.277,14.335l-57.146-78.655
			C 169.18-20.503, 211.245-32, 256-32s 86.82,11.497, 123.424,31.68L 322.278,78.336z"  />
<glyph unicode="&#x73;" d="M 507.44,16.752c 6.096-6.096, 6.096-15.984,0-22.096l-22.096-22.096
	c-6.112-6.096-16-6.096-22.096,0l-154.688,154.688c-1.68,1.68-2.8,3.664-3.552,5.776C 273.28,109.84, 234.32,96, 192,96
	C 85.968,96,0,181.968,0,288C0,394.032, 85.968,480, 192,480c 106.032,0, 192-85.968, 192-192c0-42.32-13.84-81.28-37.024-113.008
	c 2.112-0.752, 4.096-1.856, 5.776-3.552L 507.44,16.752z M 192,416c-70.688,0-128-57.312-128-128c0-70.688, 57.312-128, 128-128s 128,57.312, 128,128
	C 320,358.688, 262.688,416, 192,416z"  />
<glyph unicode="&#x3e;" d="M 200.329,45.915L 192.841,50.953L 309.952,224.539L 193.152,397.038L 200.622,402.094L 320.859,224.549 z"  />
<glyph unicode="&#x3c;" d="M 311.378,45.897L 191.141,223.461L 311.671,402.094L 319.159,397.038L 202.048,223.461L 318.848,50.953 z"  />
<glyph unicode="&#x65;" d="M 467.075,447.674L 189.621,129.737L 34.846,216.466 	zM 380.13,21.614L 203.681,121.379L 477.154,448.527 	zM 152.164-0.522L 152.164,136.734L 229.020,91.387 	z"  />
<glyph unicode="&#x69;" d="M 73.361,287.285l 78.347,0 l0-251.686 L 73.361,35.595 L 73.361,287.285 z M 112.556,412.401c 25.048,0, 45.376-20.324, 45.376-45.339
					c0-25.041-20.327-45.368-45.376-45.368c-25.142,0-45.408,20.327-45.408,45.368C 67.145,392.078, 87.414,412.401, 112.556,412.401M 200.827,287.285l 75.035,0 l0-34.388 l 1.071,0 c 10.443,19.794, 35.996,40.655, 74.073,40.655
					c 79.207,0, 93.849-52.115, 93.849-119.902l0-138.055 l-78.209,0 L 366.646,157.977 c0,29.191-0.559,66.745-40.684,66.745
					c-40.735,0-46.951-31.791-46.951-64.621l0-124.507 L 200.827,35.595 L 200.827,287.285 z"  />
<glyph unicode="&#x63;" d="M 479.274,294.752c-0.042,0.283-0.12,0.554-0.151,0.837c-0.102,0.542-0.193,1.084-0.343,1.614
		c-0.090,0.319-0.193,0.626-0.301,0.928c-0.145,0.47-0.313,0.94-0.494,1.397c-0.126,0.319-0.283,0.632-0.428,0.94
		c-0.193,0.434-0.404,0.861-0.645,1.271c-0.169,0.307-0.373,0.602-0.548,0.891c-0.259,0.398-0.524,0.789-0.819,1.163
		c-0.205,0.283-0.428,0.566-0.651,0.837c-0.307,0.355-0.626,0.705-0.952,1.036c-0.253,0.259-0.5,0.518-0.771,0.753
		c-0.355,0.319-0.711,0.626-1.090,0.916c-0.295,0.223-0.578,0.446-0.879,0.657c-0.12,0.072-0.211,0.163-0.325,0.235L 266.559,444.184
		c-6.445,4.307-14.86,4.307-21.311,0L 40.918,308.227c-0.114-0.072-0.199-0.163-0.319-0.235c-0.307-0.211-0.59-0.434-0.873-0.602
		c-0.373-0.295-0.741-0.602-1.096-0.916c-0.271-0.235-0.518-0.494-0.771-0.753c-0.343-0.331-0.645-0.681-0.952-1.205
		c-0.223-0.271-0.446-0.554-0.657-0.837c-0.283-0.373-0.554-0.765-0.807-1.163c-0.193-0.295-0.373-0.59-0.56-0.602
		c-0.235-0.41-0.44-0.837-0.645-1.271c-0.139-0.307-0.301-0.626-0.422-0.94c-0.187-0.458-0.349-0.928-0.494-1.205
		c-0.108-0.307-0.211-0.614-0.307-0.928c-0.133-0.53-0.229-1.072-0.337-1.614c-0.054-0.283-0.126-0.554-0.145-0.602
		c-0.12-0.825-0.175-1.656-0.175-2.506l0-136.824 c0-0.602,0-1.807,0-2.518c 0.036,0,0-0.602,0-0.602c 0.108-0.602,0-1.205, 0.608-1.614
		c 0.096-0.602,0-0.602, 0.608-0.928c 0.145-0.602, 0.608-1.205, 0.608-1.205c 0.126-0.602,0-0.602, 0.602-0.928c 0.205-0.602, 0.608-0.602, 0.608-1.283
		c 0.175,0, 0.608-0.602, 0.608-0.602c 0.253-0.602, 0.608-0.602, 0.608-1.163c 0.205,0, 0.608-0.602, 0.608-0.837c 0.301-0.602, 0.602-0.602, 1.199-1.205
		c 0.253,0, 0.608-0.602, 0.608-0.753c 0.355-0.602, 0.608-0.602, 1.205-0.916c 0.283,0, 0.602-0.602, 0.602-0.602c 0.12,0,0,0, 0.608-0.235l 203.824-136.818
		c 3.229-2.409, 7.222-3.012, 10.842-3.235c 3.704,0, 7.415,1.084, 10.662,3.235l 204.33,136.216c 0.114,0.072, 0.199,0.163, 0.319,0.235
		c 0.307,0.211, 0.59,0.434, 0.879,0.657c 0.373,0.295, 0.735,0.602, 1.096,0.916c 0.265,0.235, 0.512,0.494, 0.765,0.753
		c 0.343,0.331, 0.645,0.681, 0.958,1.036c 0.217,0.271, 0.44,0.542, 0.651,0.837c 0.289,0.373, 0.554,0.765, 0.813,1.163
		c 0.181,0.295, 0.373,0.59, 0.554,0.879c 0.241,0.422, 0.446,0.849, 0.645,1.283c 0.139,0.307, 0.301,0.614, 0.422,0.928
		c 0.187,0.47, 0.349,0.94, 0.494,1.41c 0.108,0.307, 0.217,0.614, 0.307,0.928c 0.133,0.53, 0.241,1.072, 0.337,1.614
		c 0.054,0.271, 0.126,0.554, 0.157,0.825c 0.108,0.837, 0.163,1.669, 0.163,2.518L 479.66,292.253 c-0.187,0.813-0.042,1.416-0.638,2.506L 479.274,294.752 z
		 M 275.119,392.568l 150.522-100.34l-67.235-44.978l-83.287,55.718L 275.119,392.568 z M 236.695,392.406l0-89.606 L 153.407,247.245l-67.241,44.978
		l 150.522,100.34L 236.695,392.406 z M 70.782,256.286l 48.062-32.148l-48.062-32.148L 70.782,256.286 z M 236.695,55.715L 86.167,155.79L 153.407,200.761l 83.281-55.706
		L 236.695,55.715 z M 255.904,178.691l-67.945,45.448l 67.945,45.448l 67.945-45.448L 255.904,178.691z M 275.119,55.715L 275.119,145.315 l 83.287,55.706l 67.235-44.966
		L 275.119,55.715z M 441.019,191.991l-48.050,32.148l 48.050,32.148L 441.019,191.991 z"  />
<glyph unicode="&#x78;" d="M 77.605,427.922L 459.922,45.641L 434.359,20.078L 52.078,402.395zM 434.395,427.922L 459.922,402.395L 77.641,20.078L 52.078,45.641z"  />
<glyph unicode="&#x4d;" d="M 454.656,35.584L 388.088,35.584L 388.088,144.463L 226.505,242.183L 256.512,302.848L 388.088,224L 388.088,303.531L 256.512,224L 125.251,303.531L 125.251,224L 256.512,302.848L 306.816,253.988L 125.251,144.469L 125.251,35.584L 58.368,35.584L 58.368,422.656L 256.512,302.848L 454.656,422.656 zM 230.679,145.494A25.833,25.833 180 1 1 282.345,145.49400000000003A25.833,25.833 180 1 1 230.679,145.49400000000003z"  />
<glyph unicode="&#x2f;" d="M 185.042,75.52L 178.715,81.975L 323.675,223.991L 178.715,366.025L 185.042,372.48L 336.576,223.991 z"  />
<glyph unicode="&#x5c;" d="M 404.48,296.603L 398.025,302.939L 256.009,157.97L 113.975,302.939L 107.52,296.603L 256.009,145.070 z"  />
<glyph unicode="&#x6d;" d="M 481.779,3.473L 416.246,3.473L 416.246,127.537L 221.807,238.887L 256,289.95L 416.246,200.104L 416.246,319.11L 256,220.747L 96.111,319.11L 96.111,200.104L 256,289.95L 313.321,252.338L 96.111,127.545L 96.111,3.473L 30.224,3.473L 30.224,444.527L 256,289.95L 481.779,444.527 	zM 226.563,128.714A29.44,29.44 180 1 1 285.44,128.714A29.44,29.44 180 1 1 226.563,128.714z"  />
<glyph unicode="&#x20;" horiz-adv-x="256" />
</font></defs></svg>
